X:201
T:Mrs Milne of Kinneff
P:The Rose of Allandale
R:Strathspey (4x32)
B:RSCDS L32-2
Z:Anselm Lingnau <anselm@strathspey.org>
M:C
L:1/8
K:C
G2|"C"e2 ed c3 B|"F"dc BA "C"G3 G|\
        [G2E4] c2 "D7"[c2F4] de|"G"[d6B6G6] [G2F2B,2]|\
"C"e2 "E7"ed "Am"c3 B|"F"dc BA "C"G3 G|
        "F"A c2 A "G7"Bc de|"C"[c6G6E6] G2|\
"G"d2 dB "G7"G2 G2|"C"e2 ec G3 G|\
        "Dm"[f2A2] "G7"[fG2]d "C"[e2G2] "D7"[eA2]c|"G"[d6B6] G2|
"C"e2 "E7"ed "Am"c3 B|"F"dc BA "C"G3 G|\
        "F"A c2 A "G7"Bc de|"F"[c4A4F4]"C"[c2G2E2]|:"G7"[g2f2d2B2]|\
"C"[g3e3c3] e [e2G2] "E7"[c2^G2D2]|"F"[B2F2C2] [A4F4C4] [A2F2]|
        "Dm"[f3A3] e "D7"d2 c2|"G"B2 G4 "E7"[^G2D2]|\
"F"[A3C3] B "D7"dc BA|"C"G2 c2 "C#dim"e3 G|\
        "F"A c2 A "G7"Bc de|"C"[c6G6E6]:|
